**kern	**kern
*staff2	*staff1
*clefF4	*clefG2
*k[b-e-]	*k[b-e-]
*M4/4	*M4/4
=69	=69
4BBB- 4BB-	12DL
.	12F
.	12B-J
4r	12dL
.	12f
.	12b-J
2r	(12ccL
.	12a
.	12b-J
.	12ccL
.	12a
.	12b-J)
=70	=70
4F 4c 4e-	(12ddL
.	12b
.	12ccJ
4r	12ee-L
.	12b
.	12ccJ)
2r	(12ddL
.	12b
.	12ccJ
.	12ee-L
.	12b
.	12ccJ)
=71	=71
12FFL	4r
12AA	.
12CJ	.
4F	12AL
.	12c
.	12e-J
2r	12fL
.	12a
.	12ccJ
.	12ee-L
.	12b
.	12ccJ
=72	=72
4B- 4d 4f	(12ee-L
.	12cc#
.	12ddJ
4r	12ffL
.	12cc#
.	12ddJ)
2r	(12ee-L
.	12cc#
.	12ddJ
.	12ffL
.	12cc#
.	12ddJ)
=73	=73
12BBB-'L	4r
12EE-'	.
12GG'J	.
12BB-'L	[2.ee- [2.gg
12E-'	.
12G'J	.
12B-'L	.
12e-'	.
12g'J	.
4b-	.
=74	=74
12BBB-'L	4ee-] 4gg]
12DD'	.
12FF'J	.
12BB-'L	2.dd 2.ff
12D'	.
12F'J	.
12B-'L	.
12d'	.
12f'J	.
4b-	.
=75	=75
*^	*
(4c 4e-	2F	12fL
.	.	12a
.	.	12ccJ
4B-) 4d	.	12ffL
.	.	12bb-
.	.	12dddJ
(4c 4e-	2F	12ffL
.	.	12aa
.	.	12cccJ
4B-) 4d	.	12ffL
.	.	12bb-
.	.	12dddJ
*v	*v	*
=76	=76
4F 4A 4c	12fffL
.	12ccc
.	12aaJ
4r	12ffL
.	12cc
.	12aJ
4r	12fL
.	12c
.	12AJ
12FL	4r
12C	.
12AAJ	.
=	=
*-	*-
